svgs/sharp-light/square-6.svg

<svg xmlns="http://www.w3.org/2000/svg" viewBox="0 0 448 512"><!--! Font Awesome Pro 6.6.0 by @fontawesome - https://fontawesome.com License - https://fontawesome.com/license (Commercial License) Copyright 2024 Fonticons, Inc. --><path d="M32 64l0 384 384 0 0-384L32 64zM0 32l32 0 384 0 32 0 0 32 0 384 0 32-32 0L32 480 0 480l0-32L0 64 0 32zM160.7 208.3l79-80.3 44.9 0-1.2 1.2L221.6 192c.8 0 1.6 0 2.4 0c53 0 96 43 96 96s-43 96-96 96s-96-43-96-96c0-29.8 11.7-58.5 32.7-79.7zM160 288a64 64 0 1 0 128 0 64 64 0 1 0 -128 0z"/></svg>

<svg xmlns="http://www.w3.org/2000/svg" viewBox="0 0 448 512"><!--! Font Awesome Pro 6.4.0 by @fontawesome - https://fontawesome.com License - https://fontawesome.com/license (Commercial License) Copyright 2023 Fonticons, Inc. --><path d="M32 64V448H416V64H32zM0 32H32 416h32V64 448v32H416 32 0V448 64 32zM160.7 208.3l79-80.3h44.9l-1.2 1.2L221.6 192c.8 0 1.6 0 2.4 0c53 0 96 43 96 96s-43 96-96 96s-96-43-96-96c0-29.8 11.7-58.5 32.7-79.7zM160 288a64 64 0 1 0 128 0 64 64 0 1 0 -128 0z"/></svg>
